X:744
T:The Toast
C:Feuillet / John Essex, 1710
L:1/8
M:6/8
Q:3/8=112
S:For the further improvement of dancing
K:Bb
P:A
|: d | "Gm"gdd "/"dBG | "Cm"e3 "D7"d2d | "Gm"gab "Cm"abg | "D7"^fga "/"d2d |\
"Gm"gdd "/"dBG | "Cm"e3 "D7"d2d | "Bb"def "F7"BcA | "Bb"B3- "/"B2 :|
P:B
|: d | "Bb"dBB "/"BdB | "F"f3- "/"f2f | "F7"fcc "/"cec | "G7"g3- "/"g2a |\
"C7"bgg "/"g=ee | "Dm"ad=e "A7"^c2A | "Gm"BGG "A7"Ad^c | "Dm"d3- "/"d2a |
"D"a^fd "/"dba | "Gm"b3- "/"b2g | "C"g=ec "/"cag | "F"a3- "/"a2f |\
"Bb"fdB "Eb"Bed | "F7"ecc "/"cfe | "Gm"dgb "D7"dg^f | "Gm"g3- "/"g2 :|

